assets/gcpcloudfirewallrules/original.svg

<svg height="24" width="24" xmlns="http://www.w3.org/2000/svg"><path d="m1.98 2h8.89v2.22h-8.89zm0 17.78h8.89v2.22h-8.89zm0-8.89h8.89v2.22h-8.89zm11.11-8.89h8.89v2.22h-8.89zm0 17.78h8.89v2.22h-8.89zm0-8.89h8.89v2.22h-8.89zm-5.56-4.45h8.89v2.22h-8.89zm0 8.89h8.89v2.22h-8.89zm-5.55-8.89h3.33v2.22h-3.33zm0 8.89h3.33v2.22h-3.33zm16.67-8.89h3.33v2.22h-3.33zm0 8.89h3.33v2.22h-3.33z" fill="#4285f4"/></svg>

<svg xmlns="http://www.w3.org/2000/svg" width="24" height="24"><path fill="#4285f4" d="M1.98 2h8.89v2.22H1.98zm0 17.78h8.89V22H1.98zm0-8.89h8.89v2.22H1.98zM13.09 2h8.89v2.22h-8.89zm0 17.78h8.89V22h-8.89zm0-8.89h8.89v2.22h-8.89zM7.53 6.44h8.89v2.22H7.53zm0 8.89h8.89v2.22H7.53zM1.98 6.44h3.33v2.22H1.98zm0 8.89h3.33v2.22H1.98zm16.67-8.89h3.33v2.22h-3.33zm0 8.89h3.33v2.22h-3.33z"/></svg>
